X:14807
%3630
T:Cujes Mala (Usest)
O:Serbia
S:from record Pecurka goes underground (P.U.1 Oct 1975)
L:1/8
M:2/4
Q:1/4=120
K:Am
|: "G".^C D2 .D| .^C D2 .D| .^CDCD| "D"C2 "G"B,2|\
D2 "D" EF| E2 D2 |"Am"C4 | "G"B,4|
.^C D2 .F| E2 D2 |"Am"C4 | "G"B,4|
